Newaita/actions/16/zoom-fit-width.svg

<svg height="16" viewBox="0 0 16 16" width="16" xmlns="http://www.w3.org/2000/svg"><g fill="#424242"><path d="m4.953125 6.066406c-.078125.003906-.152344.03125-.210937.078125l-1.984376 1.65625c-.164062.136719-.164062.390625 0 .527344l1.984376 1.652344c.222656.1875.5625.027343.5625-.261719v-3.308594c0-.195312-.160157-.347656-.351563-.34375zm0 0"/><path d="m10.914062 6.066406c.078126.003906.152344.03125.210938.078125l1.984375 1.65625c.164063.136719.164063.390625 0 .527344l-1.984375 1.652344c-.222656.1875-.5625.027343-.5625-.261719v-3.308594c0-.195312.160156-.347656.351562-.34375zm0 0"/><path d="m2.644531 1.449219c-.730469 0-1.320312.589843-1.320312 1.320312v2.648438h1.320312v-1.984375c0-.367188.296875-.664063.664063-.664063h1.984375v-1.320312zm7.941407 0v1.320312h1.984374c.363282 0 .660157.296875.660157.664063v1.984375h1.324219v-2.648438c0-.730469-.589844-1.320312-1.324219-1.320312zm-9.261719 9.261719v2.644531c0 .734375.589843 1.324219 1.320312 1.324219h2.648438v-1.324219h-1.984375c-.367188 0-.664063-.296875-.664063-.660157v-1.984374zm11.90625 0v1.984374c0 .363282-.296875.660157-.660157.660157h-1.984374v1.324219h2.644531c.734375 0 1.324219-.589844 1.324219-1.324219v-2.644531zm0 0"/></g></svg>

<svg xmlns="http://www.w3.org/2000/svg" xmlns:xlink="http://www.w3.org/1999/xlink" width="16px" height="16px" viewBox="0 0 16 16" version="1.1">
<g id="surface1">
     <defs>
  <style id="current-color-scheme" type="text/css">
   .ColorScheme-Text { color:#424242; } .ColorScheme-Highlight { color:#eeeeee; }
  </style>
 </defs>
<path style="fill:currentColor" class="ColorScheme-Text" d="M 4.953125 6.066406 C 4.875 6.070312 4.800781 6.097656 4.742188 6.144531 L 2.757812 7.800781 C 2.59375 7.9375 2.59375 8.191406 2.757812 8.328125 L 4.742188 9.980469 C 4.964844 10.167969 5.304688 10.007812 5.304688 9.71875 L 5.304688 6.410156 C 5.304688 6.214844 5.144531 6.0625 4.953125 6.066406 Z M 4.953125 6.066406 "/>
     <defs>
  <style id="current-color-scheme" type="text/css">
   .ColorScheme-Text { color:#424242; } .ColorScheme-Highlight { color:#eeeeee; }
  </style>
 </defs>
<path style="fill:currentColor" class="ColorScheme-Text" d="M 10.914062 6.066406 C 10.992188 6.070312 11.066406 6.097656 11.125 6.144531 L 13.109375 7.800781 C 13.273438 7.9375 13.273438 8.191406 13.109375 8.328125 L 11.125 9.980469 C 10.902344 10.167969 10.5625 10.007812 10.5625 9.71875 L 10.5625 6.410156 C 10.5625 6.214844 10.722656 6.0625 10.914062 6.066406 Z M 10.914062 6.066406 "/>
     <defs>
  <style id="current-color-scheme" type="text/css">
   .ColorScheme-Text { color:#424242; } .ColorScheme-Highlight { color:#eeeeee; }
  </style>
 </defs>
<path style="fill:currentColor" class="ColorScheme-Text" d="M 2.644531 1.449219 C 1.914062 1.449219 1.324219 2.039062 1.324219 2.769531 L 1.324219 5.417969 L 2.644531 5.417969 L 2.644531 3.433594 C 2.644531 3.066406 2.941406 2.769531 3.308594 2.769531 L 5.292969 2.769531 L 5.292969 1.449219 Z M 10.585938 1.449219 L 10.585938 2.769531 L 12.570312 2.769531 C 12.933594 2.769531 13.230469 3.066406 13.230469 3.433594 L 13.230469 5.417969 L 14.554688 5.417969 L 14.554688 2.769531 C 14.554688 2.039062 13.964844 1.449219 13.230469 1.449219 Z M 1.324219 10.710938 L 1.324219 13.355469 C 1.324219 14.089844 1.914062 14.679688 2.644531 14.679688 L 5.292969 14.679688 L 5.292969 13.355469 L 3.308594 13.355469 C 2.941406 13.355469 2.644531 13.058594 2.644531 12.695312 L 2.644531 10.710938 Z M 13.230469 10.710938 L 13.230469 12.695312 C 13.230469 13.058594 12.933594 13.355469 12.570312 13.355469 L 10.585938 13.355469 L 10.585938 14.679688 L 13.230469 14.679688 C 13.964844 14.679688 14.554688 14.089844 14.554688 13.355469 L 14.554688 10.710938 Z M 13.230469 10.710938 "/>
</g>
</svg>
